X:46
T:Mo Bhr\'on a's mo Dh\'ith
T:My Sorrow and my Loss
B:Joyce, P. W.; "Old Irish Folk Music and Songs"
R:song air
H:Written down from singers about 1846.
L:1/8
M:6/8
K:F
"Mod. or slow."\
G/F/|DGG G2 A/=B/|cAG F2 G|AGG Gce|
d3 d2 B/c/|dgg fdc/d/|fdc A2 ((3d/c/A/)|GGA Bcd|
fdf Hg2 "Chorus"d/c/|BAG AHdd/c/|AGG G2||
